X: 40339
T: Tom Byrne's
R: jig
M: 6/8
K: Cmajor
|:d^cA AGE|DCA, C3|EAA AGE|GAB cde|
d^cA AGE|DCA, C2 D|EAA AGE|GED D3:|
|:dcA d2e|fag fed|cEG c2d|eag edc|
dcA d2e|fag fed|cAG cGE|DED D3:|

